X:1
T:Title
%%score { ( 1 4 ) | ( 2 3 ) }
L:1/8
M:4/4
K:C
V:1 treble nm="Grand Piano"
V:4 treble 
V:2 bass 
V:3 bass 
V:1
 z4 z2[Q:1/4=100] [Ec]>[EB] | [Ec]2 [EG]2 A2 G>F | E2 [B,D]2 C2 [Ec]>[EB] | [Ec]2 [EG]2 A2 G>E | %4
[M:3/4] D6 |[M:1/4] D>E |[M:4/4] F2 E2 D2 E>F | [EG]2 [DF]2 [CE]2 [EG]2 | [Gc]2 G>F E2 [B,D]2 | %9
[M:3/4] C6 |[M:1/4] [Ec]2 |[M:4/4] z2 c4 z2 | B2 z2 F2 B>c | [^Fd]2 [FA]2 [Fd]2 [DFc]2 | %14
[M:3/4] [DGB]6 |[M:1/4] [Gc]>[FB] |[M:4/4] [Ec]2 [EG]2 [EG]2 [Ec]>[GB] | c2 A2 A2 [Ac]>[Ad] | %18
 e2 d>c d2 [DFB]2 |[M:3/4] [CEc]6 |] %20
V:2
 z4 z2 [C,G,]>[C,G,] | [C,G,]2 [C,C]2 [F,CF]2 [E,G,C]>[F,A,C] | %2
 [G,C]2 [G,,F,]2 [C,E,]2 [C,G,]>[C,G,] | [C,G,]2 [C,C]2 [F,CF]2 [G,C]->[C,G,C] |[M:3/4] [G,B,]6 | %5
[M:1/4] [G,B,]>[G,C] |[M:4/4] [G,D]2 [G,C]2 [G,B,]2 [G,C]>[G,D] | [C,G,]2 [C,G,]2 [C,G,]2 [C,C]2 | %8
 [E,G,]2 [E,G,C]>[F,A,C] [G,C]2 [G,,F,]2 |[M:3/4] [C,E,]6 |[M:1/4] [C,G,]2 | %11
[M:4/4] [C,G,]2 [C,G,]2 [C,G,]2 [C,C]2 | [F,CF]2 [F,CF]2 [F,C]2 [F,A,F]>[F,A,F] | %13
 [D,A,]2 [D,A,]2 [D,A,]2 D,2 |[M:3/4] G,2 G,2 G,F, |[M:1/4] [E,G,]>[D,G,] | %16
[M:4/4] [C,G,]2 [C,C]2 [C,C]2 [C,G,]>[C,G,] | [F,A,F]2 [F,CF]2 [F,CF]2 [F,C]>[F,C] | %18
 [G,CG]2 [G,CF]>[K:bass][G,CE] [G,B,]2 G,,2 |[M:3/4] C,6 |] %20
V:3
 x8 | x8 | x8 | z4 z2 E,2 |[M:3/4] x6 |[M:1/4] x2 |[M:4/4] x8 | x8 | x8 |[M:3/4] x6 |[M:1/4] x2 | %11
[M:4/4] x8 | x8 | x8 |[M:3/4] x6 |[M:1/4] x2 |[M:4/4] x8 | x8 | x7/2[K:bass] x9/2 |[M:3/4] x6 |] %20
V:4
 x8 | x8 | x8 | x8 |[M:3/4] x6 |[M:1/4] x2 |[M:4/4] x8 | x8 | x8 |[M:3/4] x6 |[M:1/4] x2 | %11
[M:4/4] [Ed]2 E2 E2 [EG]2 | z2 A4 z2 | x8 |[M:3/4] x6 |[M:1/4] x2 |[M:4/4] x8 | x8 | x8 | %19
[M:3/4] x6 |] %20

